www/img/targets/vector/C Sharp wordmark.svg

<svg height="254pt" viewBox="0 0 371 254" width="371pt" xmlns="http://www.w3.org/2000/svg"><path d="m277.47 77.82c0-13.03-.01-26.05.01-39.08 2.75-.01 5.51-.01 8.27-.01.04 12.3 0 24.6.02 36.9 6.18-1.64 12.34-3.32 18.52-4.96.01 6.86.01 13.72 0 20.59-6.17 1.67-12.36 3.31-18.52 4.99 0 16.77-.01 33.55 0 50.32 6.18-1.64 12.34-3.32 18.52-4.96.01 6.86 0 13.72 0 20.58-6.17 1.68-12.35 3.31-18.52 4.99-.02 12.14 0 24.28-.01 36.42-2.76 0-5.53 0-8.29-.01-.01-11.44.01-22.89 0-34.33-12.32 3.31-24.63 6.62-36.94 9.96-.01 13.04.01 26.07-.01 39.11-2.78 0-5.56 0-8.34 0-.02-12.3.01-24.61-.01-36.91-6.16 1.64-12.3 3.32-18.46 4.95-.01-6.9-.01-13.8 0-20.7 6.15-1.68 12.31-3.3 18.46-4.98 0-16.73.02-33.47 0-50.2-6.16 1.63-12.3 3.31-18.46 4.95-.01-6.87-.01-13.73 0-20.59 6.15-1.68 12.31-3.3 18.46-4.98.01-12.15 0-24.31.01-36.47 2.78 0 5.56 0 8.35.01.01 11.45-.01 22.91 0 34.37 12.32-3.31 24.63-6.62 36.94-9.96m-36.93 30.57c-.02 16.74-.01 33.48-.01 50.22 12.32-3.32 24.63-6.64 36.94-9.96 0-16.74.01-33.47-.01-50.21-12.31 3.3-24.61 6.64-36.92 9.95z"/><path d="m90.61 48.54c14.64-7.16 31.43-9.11 47.52-7.33 15.29 1.72 30.23 8.48 40.71 19.9 7.61 8.14 12.59 18.38 15.74 28.99-7.32 1.74-14.64 3.48-21.97 5.2-3.87-12.44-11.25-24.65-23.26-30.64-13.35-6.58-29.38-6.01-43.3-1.54-15.4 5.06-26.15 19.01-30.87 34.07-5.42 17.27-5.25 35.9-2.15 53.59 2.48 14.26 9.52 28.14 21.54 36.63 13.16 9.65 30.88 11.34 46.39 7.41 11.88-3.02 21.86-11.61 27.4-22.45 3.16-5.87 5.21-12.27 6.79-18.73 7.44 1.9 14.9 3.74 22.33 5.7-4.13 15.71-11.67 31.2-24.58 41.53-13.32 10.95-30.88 15.64-47.94 15.1-19.17-.19-39.51-5.51-53.06-19.84-13.59-14.72-21.17-34.3-23.44-54.04-1.88-18.53-.81-37.82 6.31-55.21 6.71-16.6 19.77-30.48 35.84-38.34z"/></svg>

<?xml version="1.0" encoding="UTF-8" ?>
<!DOCTYPE svg PUBLIC "-//W3C//DTD SVG 1.1//EN" "http://www.w3.org/Graphics/SVG/1.1/DTD/svg11.dtd">
<svg width="371pt" height="254pt" viewBox="0 0 371 254" version="1.1" xmlns="http://www.w3.org/2000/svg">
<g id="#000000ff">
<path fill="#000000" opacity="1.00" d=" M 277.47 77.82 C 277.47 64.79 277.46 51.77 277.48 38.74 C 280.23 38.73 282.99 38.73 285.75 38.73 C 285.79 51.03 285.75 63.33 285.77 75.63 C 291.95 73.99 298.11 72.31 304.29 70.67 C 304.30 77.53 304.30 84.39 304.29 91.26 C 298.12 92.93 291.93 94.57 285.77 96.25 C 285.77 113.02 285.76 129.80 285.77 146.57 C 291.95 144.93 298.11 143.25 304.29 141.61 C 304.30 148.47 304.29 155.33 304.29 162.19 C 298.12 163.87 291.94 165.50 285.77 167.18 C 285.75 179.32 285.77 191.46 285.76 203.60 C 283.00 203.60 280.23 203.60 277.47 203.59 C 277.46 192.15 277.48 180.70 277.47 169.26 C 265.15 172.57 252.84 175.88 240.53 179.22 C 240.52 192.26 240.54 205.29 240.52 218.33 C 237.74 218.33 234.96 218.33 232.18 218.33 C 232.16 206.03 232.19 193.72 232.17 181.42 C 226.01 183.06 219.87 184.74 213.71 186.37 C 213.70 179.47 213.70 172.57 213.71 165.67 C 219.86 163.99 226.02 162.37 232.17 160.69 C 232.17 143.96 232.19 127.22 232.17 110.49 C 226.01 112.12 219.87 113.80 213.71 115.44 C 213.70 108.57 213.70 101.71 213.71 94.85 C 219.86 93.17 226.02 91.55 232.17 89.87 C 232.18 77.72 232.17 65.56 232.18 53.40 C 234.96 53.40 237.74 53.40 240.53 53.41 C 240.54 64.86 240.52 76.32 240.53 87.78 C 252.85 84.47 265.16 81.16 277.47 77.82 M 240.54 108.39 C 240.52 125.13 240.53 141.87 240.53 158.61 C 252.85 155.29 265.16 151.97 277.47 148.65 C 277.47 131.91 277.48 115.18 277.46 98.44 C 265.15 101.74 252.85 105.08 240.54 108.39 Z" />
<path fill="#000000" opacity="1.00" d=" M 90.61 48.54 C 105.25 41.38 122.04 39.43 138.13 41.21 C 153.42 42.93 168.36 49.69 178.84 61.11 C 186.45 69.25 191.43 79.49 194.58 90.10 C 187.26 91.84 179.94 93.58 172.61 95.30 C 168.74 82.86 161.36 70.65 149.35 64.66 C 136.00 58.08 119.97 58.65 106.05 63.12 C 90.65 68.18 79.90 82.13 75.18 97.19 C 69.76 114.46 69.93 133.09 73.03 150.78 C 75.51 165.04 82.55 178.92 94.57 187.41 C 107.73 197.06 125.45 198.75 140.96 194.82 C 152.84 191.80 162.82 183.21 168.36 172.37 C 171.52 166.50 173.57 160.10 175.15 153.64 C 182.59 155.54 190.05 157.38 197.48 159.34 C 193.35 175.05 185.81 190.54 172.90 200.87 C 159.58 211.82 142.02 216.51 124.96 215.97 C 105.79 215.78 85.45 210.46 71.90 196.13 C 58.31 181.41 50.73 161.83 48.46 142.09 C 46.58 123.56 47.65 104.27 54.77 86.88 C 61.48 70.28 74.54 56.40 90.61 48.54 Z" />
</g>
</svg>
